src/assets/outline/ChartFail.svg

<svg width="24" height="24" viewBox="0 0 24 24"  xmlns="http://www.w3.org/2000/svg">
<path d="M17.2299 21.5199C17.0399 21.5199 16.8499 21.4499 16.6999 21.2999C16.4099 21.0099 16.4099 20.5299 16.6999 20.2399L20.2399 16.6999C20.5299 16.4099 21.0099 16.4099 21.2999 16.6999C21.5899 16.9899 21.5899 17.4699 21.2999 17.7599L17.7599 21.2999C17.6199 21.4399 17.4199 21.5199 17.2299 21.5199Z" />
<path d="M20.7699 21.5199C20.5799 21.5199 20.3899 21.4499 20.2399 21.2999L16.6999 17.7599C16.4099 17.4699 16.4099 16.9899 16.6999 16.6999C16.9899 16.4099 17.4699 16.4099 17.7599 16.6999L21.2999 20.2399C21.5899 20.5299 21.5899 21.0099 21.2999 21.2999C21.1499 21.4399 20.9599 21.5199 20.7699 21.5199Z" />
<path d="M7 14.25C6.59 14.25 6.25 13.91 6.25 13.5V10.5C6.25 10.09 6.59 9.75 7 9.75C7.41 9.75 7.75 10.09 7.75 10.5V13.5C7.75 13.91 7.41 14.25 7 14.25Z" />
<path d="M12 14.25C11.59 14.25 11.25 13.91 11.25 13.5V10.5C11.25 10.09 11.59 9.75 12 9.75C12.41 9.75 12.75 10.09 12.75 10.5V13.5C12.75 13.91 12.41 14.25 12 14.25Z" />
<path d="M17 14.25C16.59 14.25 16.25 13.91 16.25 13.5V10.5C16.25 10.09 16.59 9.75 17 9.75C17.41 9.75 17.75 10.09 17.75 10.5V13.5C17.75 13.91 17.41 14.25 17 14.25Z" />
<path d="M13 22.75H9C3.57 22.75 1.25 20.43 1.25 15V9C1.25 3.57 3.57 1.25 9 1.25H15C20.43 1.25 22.75 3.57 22.75 9V13C22.75 13.41 22.41 13.75 22 13.75C21.59 13.75 21.25 13.41 21.25 13V9C21.25 4.39 19.61 2.75 15 2.75H9C4.39 2.75 2.75 4.39 2.75 9V15C2.75 19.61 4.39 21.25 9 21.25H13C13.41 21.25 13.75 21.59 13.75 22C13.75 22.41 13.41 22.75 13 22.75Z" />
</svg>

<?xml version="1.0" encoding="UTF-8"?>
<svg width="24" height="24" viewBox="0 0 24 24" xmlns="http://www.w3.org/2000/svg">
 <path d="m17.23 21.52c-0.19 0-0.38-0.07-0.53-0.22-0.29-0.29-0.29-0.77 0-1.06l3.54-3.54c0.29-0.29 0.77-0.29 1.06 0s0.29 0.77 0 1.06l-3.54 3.54c-0.14 0.14-0.34 0.22-0.53 0.22z"/>
 <path d="m20.77 21.52c-0.19 0-0.38-0.07-0.53-0.22l-3.54-3.54c-0.29-0.29-0.29-0.77 0-1.06s0.77-0.29 1.06 0l3.54 3.54c0.29 0.29 0.29 0.77 0 1.06-0.15 0.14-0.34 0.22-0.53 0.22z"/>
 <path d="m7 14.25c-0.41 0-0.75-0.34-0.75-0.75v-3c0-0.41 0.34-0.75 0.75-0.75s0.75 0.34 0.75 0.75v3c0 0.41-0.34 0.75-0.75 0.75z"/>
 <path d="m12 14.25c-0.41 0-0.75-0.34-0.75-0.75v-3c0-0.41 0.34-0.75 0.75-0.75s0.75 0.34 0.75 0.75v3c0 0.41-0.34 0.75-0.75 0.75z"/>
 <path d="m17 14.25c-0.41 0-0.75-0.34-0.75-0.75v-3c0-0.41 0.34-0.75 0.75-0.75s0.75 0.34 0.75 0.75v3c0 0.41-0.34 0.75-0.75 0.75z"/>
 <path d="m13 22.75h-4c-5.43 0-7.75-2.32-7.75-7.75v-6c0-5.43 2.32-7.75 7.75-7.75h6c5.43 0 7.75 2.32 7.75 7.75v4c0 0.41-0.34 0.75-0.75 0.75s-0.75-0.34-0.75-0.75v-4c0-4.61-1.64-6.25-6.25-6.25h-6c-4.61 0-6.25 1.64-6.25 6.25v6c0 4.61 1.64 6.25 6.25 6.25h4c0.41 0 0.75 0.34 0.75 0.75s-0.34 0.75-0.75 0.75z"/>
</svg>
